X:1
T:O Beautiful Sea
T:O Beautiful Sea
T:Ira David Sankey
T:Frances Jane (Fanny) Crosby, 1890
T:Public Domain Courtesy of the Cyber Hymnal™
C:Ira David Sankey
Z:Public Domain
Z:Courtesy of the Cyber Hymnal™
%%score ( 1 2 ) ( 3 4 )
L:1/8
Q:1/4=100
M:6/8
K:Bb
V:1 treble 
V:2 treble 
V:3 bass 
V:4 bass 
V:1
 [DF][B,D][CE] [DF]2 [Fd] | [Ec][Fd][DB] [DF]2 F | [EG][FA][FB] [=EB][EA][EB] | [Fc]6 | %4
w: 1.~Beau- ti- ful sea, O|beau- ti- ful sea, Be-|yond the dark val- ley of|time;|
w: 2.~Beau- ti- ful sea, O|beau- ti- ful sea, Thy|glo- ry shall ne- ver de-|cline;|
w: 3.~Beau- ti- ful sea, O|beau- ti- ful sea, By|faith we can some- times be-|hold;|
w: 4.~Beau- ti- ful sea, O|beau- ti- ful sea, We|long on thy bo- som to|rest;|
 [DF][B,D][CE] [DF]2 [Fd] | [Ec][Dd][DB] [EF]2 [DF] | [EG][FA][FB] [DB]>[Ec][EA] | [DB]6 || %8
w: O- ver thy gen- tle,|mur- mur- ing tide The|bells of e- ter- ni- ty|chime.|
w: O- ver thy waves that|si- lent- ly flow The|beams of e- ter- ni- ty|shine.|
w: Vi- sions of thee, so|love- ly and bright, They|fill us with rap- ture un-|told.|
w: Float- ing a- way, still|float- ing a- way, A-|way to the isles of the|blest.|
"^Refrain" [Ec]>[DB][EA] [EA][DB][Fc] | [Fd][DB][EG] [DF]2 F | [Fe]>[Fd][Fc] [Fc][Fd][Fe] | %11
w: |||
w: |||
w: Beau- ti- ful beau- ti- ful,|o- cean of light, Re-|flect- ed from E- den a-|
w: |||
 [Fd]3- [Fd]2 [DF] | [DB]>[CA][DB] [Ec][EB][EG] | [DF][B,D][CE] [DF]2 F | %14
w: |||
w: |||
w: bove, * Where|they that are washed in the|blood of the Lamb A-|
w: |||
 [EG][FA][GB] [DB]>[Ec][EA] | [DB]6 |] %16
w: ||
w: ||
w: bide in the smile of His|love.|
w: ||
V:2
 x6 | x5 F | x6 | x6 | x6 | x6 | x6 | x6 || x6 | x5 F | x6 | x6 | x6 | x5 F | x6 | x6 |] %16
V:3
 [B,,B,][B,,F,][B,,F,] [B,,B,]2 [B,,B,] | [B,,B,][B,,B,][B,,F,] [B,,B,]2 [D,B,] | %2
 [E,B,][E,C][D,B,] [G,C][G,C]G, | [F,A,]6 | B,B,B, B,2 B, | [F,A,][^F,A,][G,B,] [A,C]2 B, | %6
 [E,B,][E,C][D,B,] [F,B,]>[F,A,][F,C] | [B,,B,]6 || [F,A,]>[F,B,][F,C] [F,C][F,B,][F,A,] | %9
 [B,,B,][B,,F,][B,,G,] [B,,B,]2 F, | [F,C]>[F,B,][F,A,] [E,A,][D,B,][D,A,] | %11
 [B,,B,]3- [B,,B,]2 [B,,B,] | [B,,F,]>[B,,F,][B,,F,] [E,G,][E,G,][E,B,] | %13
 [B,,B,][B,,F,][B,,F,] [B,,B,]2 [D,B,] | [E,B,][E,B,][E,B,] [F,B,]>[F,A,][F,C] | [B,,B,]6 |] %16
V:4
 x6 | x6 | x5 G, | x6 | B,B,B, B,2 B, | x5 B, | x6 | x6 || x6 | x5 F, | x6 | x6 | x6 | x6 | x6 | %15
 x6 |] %16

